!!!OTL: Das arme Maegdlein
!!!ARE: Europa, Mitteleuropa, Deutschland
!!!SCT: A0212B
!!!YEM: Copyright 1995, estate of Helmut Schaffrath.
**kern
*ICvox
*Ivox
*M4/4
*k[]
*a:
{4a
=1
4a
4a
4a
4e
=2
8a
8g#
8a
8b
4ccn
4b
=3
2a
4r}
{4a
=4
4b
4b
4ee
4b
=5
2ccn
4b}
{4a
=6
4a
4a
4a
4e
=7
8a
8g#
8a
8b
4ccn
4b
=8
2a
4r}
{4a
=9
4b
4b
4ee
4b
=10
2ccn
2b}
=11
{4r
4b
4ccn
4b
=12
4ee
4dd
4ccn
4b
=13
2a
4r}
{4b
=14
4gn
4e
4b
4a
=15
4gn
8f#
8e
2f#
=16
2e
4r}
{4e
=17
4e
4e
4b
4b
=18
4gn
4f#
2e}
=19
{4r
4ee
4ee
4ee
=20
4b
4ee
4dd
4ccn
=21
2b
4r}
{4ee
=22
4ccn
4b
4dd
4ccn
=23
2b
2a}
==
!!!AGN: Romanze, Ballade, Lied
!! Vereinfachung bei Werlin 1646.
!!!ONB: ESAC (Essen Associative Code) Database: ALTDEU
!!!AMT: simple quadruple
!!!AIN: vox
!!!EED: Helmut Schaffrath
!!!EEV: 1.0
*-
